assets/icons/icon_user.svg

<?xml version="1.0" encoding="UTF-8"?>
<svg xmlns="http://www.w3.org/2000/svg" viewBox="0 0 48 48">
  <defs>
    <style>
      .cls-1 {
        fill: none;
        opacity: .2;
      }
    </style>
  </defs>
  <g id="guid">
    <rect class="cls-1" width="48" height="48"/>
    <rect class="cls-1" x="4" y="4" width="40" height="40"/>
  </g>
  <g id="Layer_2" data-name="Layer 2">
    <g>
      <path d="M24,5C13.51,5,5,13.51,5,24c0,3.87,1.16,7.48,3.16,10.48,3.4,5.14,9.22,8.52,15.84,8.52s12.44-3.38,15.84-8.52c2-3,3.16-6.61,3.16-10.48,0-10.49-8.51-19-19-19ZM22.45,39.92c-.09,0-.17-.01-.26-.02-.49-.05-.97-.13-1.44-.23-.09-.02-.19-.04-.28-.06-.48-.11-.95-.23-1.42-.38-.05-.02-.11-.04-.16-.06-.44-.15-.88-.32-1.3-.51-.06-.03-.13-.05-.19-.08-.44-.2-.86-.42-1.28-.66-.09-.05-.18-.1-.27-.16-.41-.24-.8-.5-1.19-.78-.08-.05-.15-.11-.22-.17-.37-.28-.73-.57-1.08-.88-.03-.03-.07-.06-.1-.09-.36-.33-.7-.68-1.04-1.04-.04-.05-.08-.09-.12-.14,3.22-2.99,7.45-4.67,11.9-4.67s8.68,1.68,11.91,4.67c-.04.04-.07.08-.11.12-.34.37-.69.73-1.06,1.07-.02.02-.04.03-.06.05-.36.33-.74.63-1.13.92-.06.05-.12.1-.19.14-.39.28-.8.55-1.21.79-.08.05-.17.1-.25.14-.42.24-.85.46-1.3.66-.06.03-.12.05-.18.07-.43.19-.88.36-1.33.51-.05.02-.1.04-.15.05-.47.15-.94.28-1.42.39-.09.02-.18.04-.28.06-.48.1-.96.18-1.45.23-.09,0-.17.02-.26.02-.51.05-1.03.08-1.55.08s-1.04-.03-1.55-.08ZM37.69,32.25c-3.63-3.26-8.43-5.25-13.69-5.25s-10.06,1.99-13.69,5.25c-1.51-2.48-2.31-5.31-2.31-8.25,0-8.82,7.18-16,16-16s16,7.18,16,16c0,2.93-.8,5.76-2.31,8.25Z"/>
      <path d="M24,12c-3.87,0-7,3.13-7,7s3.13,7,7,7,7-3.13,7-7-3.13-7-7-7ZM24,23c-2.21,0-4-1.79-4-4s1.79-4,4-4,4,1.79,4,4-1.79,4-4,4Z"/>
    </g>
  </g>
</svg>

<svg width="48" height="48" viewBox="0 0 48 48" fill="none" xmlns="http://www.w3.org/2000/svg">
<g clip-path="url(#clip0_2188_3148)">
<path d="M24 5C13.51 5 5 13.51 5 24C5 27.87 6.16 31.48 8.16 34.48C11.56 39.62 17.38 43 24 43C30.62 43 36.44 39.62 39.84 34.48C41.84 31.48 43 27.87 43 24C43 13.51 34.49 5 24 5ZM22.45 39.92C22.36 39.92 22.28 39.91 22.19 39.9C21.7 39.85 21.22 39.77 20.75 39.67C20.66 39.65 20.56 39.63 20.47 39.61C19.99 39.5 19.52 39.38 19.05 39.23C19 39.21 18.94 39.19 18.89 39.17C18.45 39.02 18.01 38.85 17.59 38.66C17.53 38.63 17.46 38.61 17.4 38.58C16.96 38.38 16.54 38.16 16.12 37.92C16.03 37.87 15.94 37.82 15.85 37.76C15.44 37.52 15.05 37.26 14.66 36.98C14.58 36.93 14.51 36.87 14.44 36.81C14.07 36.53 13.71 36.24 13.36 35.93C13.33 35.9 13.29 35.87 13.26 35.84C12.9 35.51 12.56 35.16 12.22 34.8C12.18 34.75 12.14 34.71 12.1 34.66C15.32 31.67 19.55 29.99 24 29.99C28.45 29.99 32.68 31.67 35.91 34.66C35.87 34.7 35.84 34.74 35.8 34.78C35.46 35.15 35.11 35.51 34.74 35.85C34.72 35.87 34.7 35.88 34.68 35.9C34.32 36.23 33.94 36.53 33.55 36.82C33.49 36.87 33.43 36.92 33.36 36.96C32.97 37.24 32.56 37.51 32.15 37.75C32.07 37.8 31.98 37.85 31.9 37.89C31.48 38.13 31.05 38.35 30.6 38.55C30.54 38.58 30.48 38.6 30.42 38.62C29.99 38.81 29.54 38.98 29.09 39.13C29.04 39.15 28.99 39.17 28.94 39.18C28.47 39.33 28 39.46 27.52 39.57C27.43 39.59 27.34 39.61 27.24 39.63C26.76 39.73 26.28 39.81 25.79 39.86C25.7 39.86 25.62 39.88 25.53 39.88C25.02 39.93 24.5 39.96 23.98 39.96C23.46 39.96 22.94 39.93 22.43 39.88L22.45 39.92ZM37.69 32.25C34.06 28.99 29.26 27 24 27C18.74 27 13.94 28.99 10.31 32.25C8.8 29.77 8 26.94 8 24C8 15.18 15.18 8 24 8C32.82 8 40 15.18 40 24C40 26.93 39.2 29.76 37.69 32.25Z" fill="black"/>
<path d="M24 12C20.13 12 17 15.13 17 19C17 22.87 20.13 26 24 26C27.87 26 31 22.87 31 19C31 15.13 27.87 12 24 12ZM24 23C21.79 23 20 21.21 20 19C20 16.79 21.79 15 24 15C26.21 15 28 16.79 28 19C28 21.21 26.21 23 24 23Z" fill="black"/>
</g>
<defs>
<clipPath id="clip0_2188_3148">
<rect width="48" height="48" fill="white"/>
</clipPath>
</defs>
</svg>
